svg/home-team-btn-bg.svg

<svg width="350" height="275" viewBox="0 0 350 275" fill="none" xmlns="http://www.w3.org/2000/svg">
<path d="M90.5886 27.7129C91.6711 37.9797 92.6531 48.1943 92.3778 58.5288C92.1328 67.7287 91.7784 76.9197 91.9734 86.1252C92.3112 102.078 93.2967 117.958 93.2782 133.922C93.2713 139.86 92.5863 146.055 93.7796 151.919C94.0334 153.167 94.5001 155.832 95.1812 153.356" stroke="#4D4D4D" stroke-width="3" stroke-linecap="round"/>
<path d="M91.8692 157.631C82.9782 164.557 72.28 169.617 62.2032 174.568C51.2198 179.965 40.9534 186.576 29.8437 191.787C21.6402 195.634 12.7463 198.786 5.35179 204.107" stroke="#4D4D4D" stroke-width="3" stroke-linecap="round"/>
<path d="M3.64258 206.993C11.0189 207.518 18.2835 208.341 25.5544 209.778C42.2232 213.071 58.4666 216.409 75.4335 217.616C90.8386 218.713 105.839 221.13 121.138 223.069C136.209 224.979 151.443 225.531 166.546 227.219C188.782 229.705 211.113 230.28 233.404 231.866C243.05 232.553 252.736 233.023 262.362 233.955C265.72 234.28 269.028 234.903 272.396 235.142C275.731 235.38 274.2 235.165 271.837 234.601" stroke="#4D4D4D" stroke-width="3" stroke-linecap="round"/>
<path d="M102.163 153.853C111.05 153.365 119.976 152.352 128.881 152.524C144.725 152.829 160.571 153.999 176.372 155.124C203.765 157.073 231.201 157.522 258.604 159.472C273.948 160.564 289.824 160.619 305.024 163.026C313.289 164.335 321.57 164.956 329.908 165.549" stroke="#4D4D4D" stroke-width="3" stroke-linecap="round"/>
<path d="M340.308 160.275C340.352 155.226 339.333 149.985 338.638 145.007C337.059 133.702 336.533 122.169 335.419 110.803C334.276 99.1394 332.985 87.3783 331.03 75.8199C329.618 67.4711 327.682 59.2061 327.331 50.7162C327.151 46.368 326.26 41.9269 326.482 37.5951C326.658 34.1614 327.678 30.1377 326.948 26.7397C326.833 26.2 326.144 22.349 325.56 22.3801C324.813 22.42 324.364 25.0928 324.314 25.8003" stroke="#4D4D4D" stroke-width="3" stroke-linecap="round"/>
<path d="M92.1894 19.305C112.999 18.4625 133.83 17.5796 154.661 18.0142C174.057 18.4189 193.427 19.8506 212.762 21.3972C232.216 22.9533 251.513 25.6309 270.982 27.0164C280.665 27.7055 291.382 29.7774 301.098 28.4078C302.775 28.1714 315.13 28.0623 315.195 27.1553" stroke="#4D4D4D" stroke-width="3" stroke-linecap="round"/>
<path d="M337.96 172.137C329.876 178.554 322.191 185.519 314.672 192.591C304.426 202.228 293.475 210.634 282.341 219.196C280.473 220.632 278.93 221.98 277.738 223.993C277.067 225.126 276.559 226.188 275.42 226.836" stroke="#4D4D4D" stroke-width="3" stroke-linecap="round"/>
<path d="M338.958 172.208C337.613 179.776 335.922 186.697 335.374 194.399C335.218 196.589 334.466 199.686 334.952 201.888C335.216 203.083 335.19 204.026 335.101 205.268C335.063 205.803 334.886 208.289 335.013 206.515" stroke="#4D4D4D" stroke-width="3" stroke-linecap="round"/>
<path d="M335.012 206.515C332.848 209.168 330.056 210.865 327.5 213.081C322.638 217.297 318.198 221.994 313.545 226.43C306.333 233.304 297.84 238.946 289.893 244.936C285.743 248.065 282.05 252.441 277.438 254.827C275.695 255.729 273.76 257.288 272.269 258.581C271.599 259.162 271.041 260.184 271.153 258.613" stroke="#4D4D4D" stroke-width="3" stroke-linecap="round"/>
<path d="M272.685 258.221C268.17 258.073 263.595 258.537 259.037 258.252C242.769 257.233 226.437 256.322 210.137 256.666C188.046 257.132 165.994 259.389 143.902 259.972C128.221 260.386 112.158 259.283 96.5561 257.689C87.7925 256.793 78.5143 254.69 69.9657 252.538C65.4075 251.391 60.8508 249.842 56.1568 249.355C51.3481 248.857 46.5324 248.728 41.7408 248.051C32.0858 246.687 22.2451 244.909 12.5226 244.217" stroke="#4D4D4D" stroke-width="3" stroke-linecap="round"/>
<path d="M6.63513 207.206C5.95969 216.697 3.9654 226.942 4.80812 236.4C5.06574 239.291 3.82358 243.081 4.8996 245.68" stroke="#4D4D4D" stroke-width="3" stroke-linecap="round"/>
<path d="M274.103 231.253C272.288 232.525 272.707 236.211 272.355 238.203C271.611 242.415 270.695 246.725 270.221 250.972C270.05 252.508 270.616 259.804 269.016 260.466" stroke="#4D4D4D" stroke-width="3" stroke-linecap="round"/>
<path d="M141.353 166.667C129.261 174.539 117.608 183.031 105.338 190.643C99.7692 194.097 93.1029 196.776 88.239 201.206C83.8073 205.242 79.093 208.321 75.3899 213.101" stroke="#4D4D4D" stroke-width="3" stroke-linecap="round"/>
<path d="M198.173 171.212C191.567 177.967 182.912 182.823 175.165 188.121C166.821 193.827 158.202 198.956 150.173 205.112C146.265 208.109 142.203 211.091 138.107 213.833C135.809 215.372 132.795 216.892 131.107 219.072" stroke="#4D4D4D" stroke-width="3" stroke-linecap="round"/>
<path d="M269.03 175.753C260.825 182.507 252.098 188.881 243.683 195.393C234.846 202.23 225.968 209.051 217.057 215.776C214.123 217.99 210.923 219.726 208.09 222.044C206.879 223.035 205.424 224.359 203.887 224.753" stroke="#4D4D4D" stroke-width="3" stroke-linecap="round"/>
<path d="M71.4637 183.749C111.604 184.365 152.235 186.541 191.992 192.326C210.586 195.032 229.641 196.008 248.389 197.342C257.885 198.018 286.333 200.544 276.838 199.868" stroke="#4D4D4D" stroke-width="3" stroke-linecap="round"/>
<path d="M206.727 184.853C213.016 185.015 220.291 182.348 226.299 180.621C228.843 179.889 231.356 179.024 233.688 177.749C235.424 176.8 237.822 177.094 239.215 175.609C242.392 172.221 242.536 170.86 237.545 170.505C233.92 170.247 230.478 171.186 226.967 172.008C225.712 172.302 224.454 172.616 223.221 172.994C223.193 173.003 221.287 173.558 221.301 173.359C221.341 172.802 222.628 172.081 222.144 170.913C221.631 169.675 219.432 169.257 218.26 169.132C215.331 168.822 212.273 169.18 211.631 172.671C211.046 175.855 209.676 178.65 208.192 181.477C207.698 182.418 205.054 186.238 206.62 186.35" stroke="#4D4D4D" stroke-width="3" stroke-linecap="round"/>
<path d="M240.602 173.73C240.268 178.421 239.435 183.079 239.109 187.659" stroke="#4D4D4D" stroke-width="3" stroke-linecap="round"/>
<path d="M299.952 177.954C291.998 176.191 281.943 176.381 274.935 181.214C272.981 182.562 271.626 184.949 271.712 187.362C271.81 190.107 279.628 189.535 281.316 189.382C287.093 188.859 293.807 187.385 298.881 184.394C299.896 183.796 301.937 182.359 302.205 181.122C302.731 178.689 300.298 178.67 298.42 178.346" stroke="#4D4D4D" stroke-width="3" stroke-linecap="round"/>
<path d="M271.776 188.229C271.81 190.488 271.831 192.737 271.671 194.989" stroke="#4D4D4D" stroke-width="3" stroke-linecap="round"/>
<path d="M302.161 180.367C301.939 183.488 302.047 186.675 301.609 189.782C301.502 190.543 301.161 191.265 301.079 192.041C301.051 192.308 301.05 192.564 300.784 192.675" stroke="#4D4D4D" stroke-width="3" stroke-linecap="round"/>
<path d="M140.751 182.163C140.831 181.039 140.715 179.909 140.894 178.79C141.226 176.715 142.942 175.317 144.678 174.339C146.116 173.529 147.951 173.167 149.085 174.625C149.899 175.672 150.871 177.229 151.151 178.559C151.306 179.296 151.14 177.046 151.27 176.305C151.686 173.941 152.952 171.558 154.475 169.717C156.029 167.839 158.522 165.696 161.165 166.107C163.03 166.397 163.574 169.117 163.498 170.694C163.458 171.515 163.32 171.8 163.964 170.991C165.598 168.938 167.821 167.23 170.31 166.347C171.668 165.865 175.737 164.299 176.345 166.651C176.937 168.94 176.201 170.992 174.815 172.794C174.295 173.47 173.709 174.081 173.1 174.677C173.022 174.753 172.422 175.189 172.88 175.03C174.252 174.555 175.494 174.216 176.959 174.158C178.4 174.101 179.093 174.641 179.212 176.066C179.251 176.539 179.386 177.793 179.01 178.119" stroke="#4D4D4D" stroke-width="3" stroke-linecap="round"/>
<path d="M201.156 201.5C197.656 200.943 194.232 200.322 190.682 200.567C188.42 200.722 186.142 200.868 183.907 201.261C181.492 201.685 179.124 202.307 176.871 203.281C175.15 204.024 173.508 205.046 172.746 206.844C171.53 209.715 174.095 210.989 176.609 211.268C181.662 211.83 186.933 211.283 192.005 211.125C195.064 211.029 198.008 210.617 200.923 209.657C202.664 209.083 205.281 208.301 205.877 206.285C206.209 205.158 205.535 203.794 204.746 203.002C204.342 202.597 204.058 202.173 203.521 201.919C202.436 201.406 201.216 201.379 200.043 201.295" stroke="#4D4D4D" stroke-width="3" stroke-linecap="round"/>
<path d="M205.993 207.483C206.201 210.242 206.445 212.958 205.938 215.695C205.848 216.179 205.884 217.752 205.141 217.699" stroke="#4D4D4D" stroke-width="3" stroke-linecap="round"/>
<path d="M172.196 208.712C171.936 212.641 171.887 216.571 171.608 220.499C171.553 221.262 171.519 222.002 171.33 222.742C171.285 222.915 171.296 223.123 171.318 222.811" stroke="#4D4D4D" stroke-width="3" stroke-linecap="round"/>
<path d="M114.081 195.93C118.923 195.697 123.65 195.769 128.463 196.355C130.432 196.594 132.369 196.855 134.349 196.996C136.744 197.167 139.153 197.086 141.548 197.383C141.775 197.412 141.56 197.598 141.472 197.656C140.837 198.082 140.211 198.494 139.61 198.972C137.8 200.411 135.954 201.878 133.997 203.112C132.594 203.996 130.86 204.89 129.679 206.063C128.894 206.843 128.122 207.468 127.103 207.926C127.009 207.968 126.785 207.82 126.688 207.785C125.862 207.489 124.975 207.368 124.121 207.171C121.286 206.516 118.443 205.909 115.581 205.38C113.295 204.957 111.009 204.188 108.7 203.95C107.325 203.808 105.892 203.874 104.531 203.639C104.246 203.59 103.79 203.518 103.932 203.151C104.092 202.737 104.575 202.418 104.895 202.141C105.676 201.463 106.452 200.783 107.265 200.144C108.976 198.8 110.674 197.608 112.638 196.649C113.294 196.328 114.07 195.804 114.838 195.858" stroke="#4D4D4D" stroke-width="3" stroke-linecap="round"/>
<path d="M104.385 203.636C103.964 206.336 103.367 209.243 104.044 211.952C104.193 212.547 104.33 213.078 104.296 213.696C104.282 213.951 104.228 214.113 104.379 214.287" stroke="#4D4D4D" stroke-width="3" stroke-linecap="round"/>
<path d="M126.856 208.368C126.414 210.311 125.906 212.251 125.562 214.215C125.479 214.691 125.37 215.117 125.094 215.511" stroke="#4D4D4D" stroke-width="3" stroke-linecap="round"/>
<path d="M141.664 197.517C141.792 199.511 142.612 202.787 140.686 204.214" stroke="#4D4D4D" stroke-width="3" stroke-linecap="round"/>
<path d="M78.1989 193C74.807 192.104 71.4345 191.279 67.9239 191.029C64.0579 190.754 59.9703 191.202 56.1753 191.961C53.6361 192.47 50.8033 193.363 49.2599 195.612C47.3605 198.379 51.4725 199.538 53.4611 199.97C57.2136 200.784 61.2125 200.854 65.035 200.71C68.1704 200.592 71.3396 200.233 74.3462 199.298C77.3069 198.377 80.4333 196.708 79.4368 193.213" stroke="#4D4D4D" stroke-width="3" stroke-linecap="round"/>
<path d="M121.672 170.279C119.922 168.627 117.878 167.745 115.575 167.116C113.617 166.581 111.625 166.334 109.607 166.169C107.265 165.977 104.92 165.817 102.591 166.234C98.9312 166.889 95.7315 168.374 93.3374 171.242C92.658 172.056 91.8731 172.906 91.4639 173.894" stroke="#4D4D4D" stroke-width="3" stroke-linecap="round"/>
<path d="M269.172 210.727C264.388 209.572 259.384 208.448 254.44 209.274C250.539 209.926 246.293 211.652 243.154 214.076C241.807 215.116 240.033 216.72 239.835 218.553C239.635 220.399 241.94 220.929 243.223 221.411" stroke="#4D4D4D" stroke-width="3" stroke-linecap="round"/>
</svg>

<svg xmlns="http://www.w3.org/2000/svg" width="350" height="275" fill="none"><path stroke="#4D4D4D" stroke-linecap="round" stroke-width="3" d="M90.589 27.713c1.082 10.267 2.064 20.481 1.789 30.816-.245 9.2-.6 18.39-.405 27.596.338 15.953 1.324 31.833 1.305 47.797-.007 5.938-.692 12.133.502 17.997.253 1.248.72 3.913 1.401 1.437m-3.311 4.275c-8.892 6.926-19.59 11.986-29.667 16.937-10.983 5.397-21.25 12.008-32.36 17.219-8.203 3.847-17.097 6.999-24.491 12.32m-1.709 2.886c7.376.525 14.64 1.348 21.911 2.785 16.67 3.293 32.913 6.631 49.88 7.838 15.405 1.097 30.405 3.514 45.704 5.453 15.071 1.91 30.305 2.462 45.408 4.15 22.236 2.486 44.567 3.061 66.858 4.647 9.646.687 19.332 1.157 28.958 2.089 3.358.325 6.666.948 10.034 1.187 3.335.238 1.804.023-.559-.541m-169.674-80.748c8.887-.488 17.813-1.501 26.718-1.329 15.844.305 31.69 1.475 47.491 2.6 27.393 1.949 54.829 2.398 82.232 4.348 15.344 1.092 31.22 1.147 46.42 3.554 8.265 1.309 16.546 1.93 24.884 2.523m10.4-5.274c.044-5.049-.975-10.29-1.67-15.268-1.579-11.305-2.105-22.838-3.219-34.204-1.143-11.664-2.434-23.425-4.389-34.983-1.412-8.349-3.348-16.614-3.699-25.104-.18-4.348-1.071-8.79-.849-13.12.176-3.435 1.196-7.458.466-10.856-.115-.54-.804-4.391-1.388-4.36-.747.04-1.196 2.713-1.246 3.42M92.19 19.305c20.809-.843 41.64-1.725 62.471-1.29 19.396.404 38.766 1.836 58.101 3.382 19.454 1.556 38.751 4.234 58.22 5.62 9.683.689 20.4 2.76 30.116 1.39 1.677-.236 14.032-.345 14.097-1.252m22.765 144.982c-8.084 6.417-15.769 13.382-23.288 20.454-10.246 9.637-21.197 18.043-32.331 26.605-1.868 1.436-3.411 2.784-4.603 4.797-.671 1.133-1.179 2.195-2.318 2.843m63.538-54.628c-1.345 7.568-3.036 14.489-3.584 22.191-.156 2.19-.908 5.287-.422 7.489.264 1.195.238 2.138.149 3.38-.038.535-.215 3.021-.088 1.247"/><path stroke="#4D4D4D" stroke-linecap="round" stroke-width="3" d="M335.012 206.515c-2.164 2.653-4.956 4.35-7.512 6.566-4.862 4.216-9.302 8.913-13.955 13.349-7.212 6.874-15.705 12.516-23.652 18.506-4.15 3.129-7.843 7.505-12.455 9.891-1.743.902-3.678 2.461-5.169 3.754-.67.581-1.228 1.603-1.116.032"/><path stroke="#4D4D4D" stroke-linecap="round" stroke-width="3" d="M272.685 258.221c-4.515-.148-9.09.316-13.648.031-16.268-1.019-32.6-1.93-48.9-1.586-22.091.466-44.143 2.723-66.235 3.306-15.681.414-31.744-.689-47.346-2.283-8.763-.896-18.042-2.999-26.59-5.151-4.558-1.147-9.115-2.696-13.81-3.183-4.808-.498-9.624-.627-14.415-1.304-9.655-1.364-19.496-3.142-29.218-3.834m-5.888-37.011c-.675 9.491-2.67 19.736-1.827 29.194.258 2.891-.984 6.681.092 9.28"/><path stroke="#4D4D4D" stroke-linecap="round" stroke-width="3" d="M274.103 231.253c-1.815 1.272-1.396 4.958-1.748 6.95-.744 4.212-1.66 8.522-2.134 12.769-.171 1.536.395 8.832-1.205 9.494m-127.663-93.799c-12.092 7.872-23.745 16.364-36.015 23.976-5.569 3.454-12.235 6.133-17.099 10.563-4.432 4.036-9.146 7.115-12.85 11.895m122.784-41.889c-6.606 6.755-15.261 11.611-23.008 16.909-8.344 5.706-16.963 10.835-24.992 16.991-3.908 2.997-7.97 5.979-12.066 8.721-2.298 1.539-5.312 3.059-7 5.239m137.923-43.319c-8.205 6.754-16.932 13.128-25.347 19.64-8.837 6.837-17.715 13.658-26.626 20.383-2.934 2.214-6.134 3.95-8.967 6.268-1.211.991-2.666 2.315-4.203 2.709"/><path stroke="#4D4D4D" stroke-linecap="round" stroke-width="3" d="M71.464 183.749c40.14.616 80.771 2.792 120.528 8.577 18.594 2.706 37.649 3.682 56.397 5.016 9.496.676 37.944 3.202 28.449 2.526m-70.111-15.015c6.289.162 13.564-2.505 19.572-4.232 2.544-.732 5.057-1.597 7.389-2.872 1.736-.949 4.134-.655 5.527-2.14 3.177-3.388 3.321-4.749-1.67-5.104-3.625-.258-7.067.681-10.578 1.503a57.616 57.616 0 0 0-3.746.986c-.028.009-1.934.564-1.92.365.04-.557 1.327-1.278.843-2.446-.513-1.238-2.712-1.656-3.884-1.781-2.929-.31-5.987.048-6.629 3.539-.585 3.184-1.955 5.979-3.439 8.806-.494.941-3.138 4.761-1.572 4.873"/><path stroke="#4D4D4D" stroke-linecap="round" stroke-width="3" d="M240.602 173.73c-.334 4.691-1.167 9.349-1.493 13.929m60.843-9.705c-7.954-1.763-18.009-1.573-25.017 3.26-1.954 1.348-3.309 3.735-3.223 6.148.098 2.745 7.916 2.173 9.604 2.02 5.777-.523 12.491-1.997 17.565-4.988 1.015-.598 3.056-2.035 3.324-3.272.526-2.433-1.907-2.452-3.785-2.776"/><path stroke="#4D4D4D" stroke-linecap="round" stroke-width="3" d="M271.776 188.229c.034 2.259.055 4.508-.105 6.76m30.49-14.622c-.222 3.121-.114 6.308-.552 9.415-.107.761-.448 1.483-.53 2.259-.028.267-.029.523-.295.634m-160.033-10.512c.08-1.124-.036-2.254.143-3.373.332-2.075 2.048-3.473 3.784-4.451 1.438-.81 3.273-1.172 4.407.286.814 1.047 1.786 2.604 2.066 3.934.155.737-.011-1.513.119-2.254.416-2.364 1.682-4.747 3.205-6.588 1.554-1.878 4.047-4.021 6.69-3.61 1.865.29 2.409 3.01 2.333 4.587-.04.821-.178 1.106.466.297 1.634-2.053 3.857-3.761 6.346-4.644 1.358-.482 5.427-2.048 6.035.304.592 2.289-.144 4.341-1.53 6.143-.52.676-1.106 1.287-1.715 1.883-.078.076-.678.512-.22.353 1.372-.475 2.614-.814 4.079-.872 1.441-.057 2.134.483 2.253 1.908.039.473.174 1.727-.202 2.053m22.146 23.381c-3.5-.557-6.924-1.178-10.474-.933-2.262.155-4.54.301-6.775.694-2.415.424-4.783 1.046-7.036 2.02-1.721.743-3.363 1.765-4.125 3.563-1.216 2.871 1.349 4.145 3.863 4.424 5.053.562 10.324.015 15.396-.143 3.059-.096 6.003-.508 8.918-1.468 1.741-.574 4.358-1.356 4.954-3.372.332-1.127-.342-2.491-1.131-3.283-.404-.405-.688-.829-1.225-1.083-1.085-.513-2.305-.54-3.478-.624m5.95 6.188c.208 2.759.452 5.475-.055 8.212-.09.484-.054 2.057-.797 2.004m-32.945-8.987c-.26 3.929-.309 7.859-.588 11.787-.055.763-.089 1.503-.278 2.243-.045.173-.034.381-.012.069m-57.237-26.881c4.842-.233 9.569-.161 14.382.425 1.969.239 3.906.5 5.886.641 2.395.171 4.804.09 7.199.387.227.029.012.215-.076.273-.635.426-1.261.838-1.862 1.316-1.81 1.439-3.656 2.906-5.613 4.14-1.403.884-3.137 1.778-4.318 2.951-.785.78-1.557 1.405-2.576 1.863-.094.042-.318-.106-.415-.141-.826-.296-1.713-.417-2.567-.614a196.982 196.982 0 0 0-8.54-1.791c-2.286-.423-4.572-1.192-6.881-1.43-1.375-.142-2.808-.076-4.169-.311-.285-.049-.741-.121-.599-.488.16-.414.643-.733.963-1.01.781-.678 1.557-1.358 2.37-1.997 1.711-1.344 3.409-2.536 5.373-3.495.656-.321 1.432-.845 2.2-.791m-10.453 7.778c-.421 2.7-1.018 5.607-.341 8.316.149.595.286 1.126.252 1.744-.014.255-.068.417.083.591m22.477-5.919c-.442 1.943-.95 3.883-1.294 5.847-.083.476-.192.902-.468 1.296m16.57-17.994c.128 1.994.948 5.27-.978 6.697M78.199 193c-3.392-.896-6.764-1.721-10.275-1.971-3.866-.275-7.954.173-11.749.932-2.539.509-5.372 1.402-6.915 3.651-1.9 2.767 2.212 3.926 4.201 4.358 3.753.814 7.752.884 11.574.74 3.135-.118 6.305-.477 9.311-1.412 2.96-.921 6.087-2.59 5.09-6.085m42.236-22.934c-1.75-1.652-3.794-2.534-6.097-3.163-1.958-.535-3.95-.782-5.968-.947-2.342-.192-4.687-.352-7.016.065-3.66.655-6.86 2.14-9.254 5.008-.679.814-1.464 1.664-1.873 2.652m177.708 36.833c-4.784-1.155-9.788-2.279-14.732-1.453-3.901.652-8.147 2.378-11.286 4.802-1.347 1.04-3.121 2.644-3.319 4.477-.2 1.846 2.105 2.376 3.388 2.858"/></svg>
